icons/no-newline.svg

<svg xmlns="http://www.w3.org/2000/svg" viewBox="0 0 24 24"><g fill="#cacaca"><path d="M21 7v6h-2.879l-2-2H19V7ZM5.83 13l3.58 3.58L8 18l-6-6 5.44-5.439 1.41 1.41L5.83 11h6.049l2 2Z"/><path d="m2.333.505 19.092 19.092-1.414 1.414L.92 1.92z"/></g></svg>

<!--
  - The MIT License (MIT)
  -
  - Copyright (c) 2015-2022 Elior "Mallowigi" Boukhobza
  -
  - Permission is hereby granted, free of charge, to any person obtaining a copy
  - of this software and associated documentation files (the "Software"), to deal
  - in the Software without restriction, including without limitation the rights
  - to use, copy, modify, merge, publish, distribute, sublicense, and/or sell
  - copies of the Software, and to permit persons to whom the Software is
  - furnished to do so, subject to the following conditions:
  -
  - The above copyright notice and this permission notice shall be included in all
  - copies or substantial portions of the Software.
  -
  - THE SOFTWARE IS PROVIDED "AS IS", WITHOUT WARRANTY OF ANY KIND, EXPRESS OR
  - IMPLIED, INCLUDING BUT NOT LIMITED TO THE WARRANTIES OF MERCHANTABILITY,
  - FITNESS FOR A PARTICULAR PURPOSE AND NONINFRINGEMENT. IN NO EVENT SHALL THE
  - AUTHORS OR COPYRIGHT HOLDERS BE LIABLE FOR ANY CLAIM, DAMAGES OR OTHER
  - LIABILITY, WHETHER IN AN ACTION OF CONTRACT, TORT OR OTHERWISE, ARISING FROM,
  - OUT OF OR IN CONNECTION WITH THE SOFTWARE OR THE USE OR OTHER DEALINGS IN THE
  - SOFTWARE.
  -
  -
  -->


<svg viewBox="0 0 24 24" width="16px" height="16px" xmlns="http://www.w3.org/2000/svg">
    <g fill="#CACACA">
        <path d="M 21 7 L 21 13 L 18.121 13 L 16.121 11 L 19 11 L 19 7 Z M 5.83 13 L 9.41 16.58 L 8 18 L 2 12 L 7.44 6.561 L 8.85 7.971 L 5.83 11 L 11.879 11 L 13.879 13 Z"></path>
        <rect x="2" width="27" height="2"
              transform="matrix(0.707106, 0.707107, -0.707107, 0.707106, 0.919241, -0.909189)"></rect>
    </g>
</svg>
